src/pos-icons/baby-bottle-outline.svg

<svg height="24" viewBox="0 0 24 24" width="24" xmlns="http://www.w3.org/2000/svg"><path d="m11.28 2.8-.5.5c-1.34-.75-2.94-.9-4.37-.43l-.08-.07c-.97-.98-2.56-.98-3.53 0s-.98 2.56 0 3.53l.07.08c-.47 1.43-.32 3.03.43 4.37l-.5.5c-.59.59-.59 1.53 0 2.12l1.41 1.42c.59.58 1.53.58 2.12 0l.35-.36 7.08 7.07c.58.59 1.53.59 2.12 0l5.65-5.65c.59-.59.59-1.54 0-2.13l-7.07-7.07.36-.35c.58-.59.58-1.53 0-2.12l-1.42-1.42c-.58-.58-1.53-.58-2.12.01m-7.03 4.25c.08-.34.22-.67.41-.98l-.8-.8c-.11-.11-.19-.23-.23-.37-.13-.34-.06-.76.23-1.04s.7-.36 1.04-.23c.14.04.26.12.37.23l.8.8c.31-.19.64-.33.98-.41.86-.25 1.78-.19 2.6.17l-5.23 5.23c-.36-.82-.42-1.74-.17-2.6m16.22 7.77-5.65 5.65-7.07-7.07 5.65-5.65zm-6.71-9.55-8.49 8.49-1.41-1.42 8.48-8.48zm1.06 6.36-3.19 3.19-1.06-1.06 3.19-3.19zm2.12 2.13-3.18 3.18-1.07-1.06 3.19-3.19z"/></svg>

<?xml version="1.0" encoding="UTF-8"?><!DOCTYPE svg PUBLIC "-//W3C//DTD SVG 1.1//EN" "http://www.w3.org/Graphics/SVG/1.1/DTD/svg11.dtd"><svg xmlns="http://www.w3.org/2000/svg" xmlns:xlink="http://www.w3.org/1999/xlink" version="1.1" id="mdi-baby-bottle-outline" width="24" height="24" viewBox="0 0 24 24"><path d="M11.28 2.8L10.78 3.3C9.44 2.55 7.84 2.4 6.41 2.87L6.33 2.8C5.36 1.82 3.77 1.82 2.8 2.8S1.82 5.36 2.8 6.33L2.87 6.41C2.4 7.84 2.55 9.44 3.3 10.78L2.8 11.28C2.21 11.87 2.21 12.81 2.8 13.4L4.21 14.82C4.8 15.4 5.74 15.4 6.33 14.82L6.68 14.46L13.76 21.53C14.34 22.12 15.29 22.12 15.88 21.53L21.53 15.88C22.12 15.29 22.12 14.34 21.53 13.75L14.46 6.68L14.82 6.33C15.4 5.74 15.4 4.8 14.82 4.21L13.4 2.79C12.82 2.21 11.87 2.21 11.28 2.8M4.25 7.05C4.33 6.71 4.47 6.38 4.66 6.07L3.86 5.27C3.75 5.16 3.67 5.04 3.63 4.9C3.5 4.56 3.57 4.14 3.86 3.86S4.56 3.5 4.9 3.63C5.04 3.67 5.16 3.75 5.27 3.86L6.07 4.66C6.38 4.47 6.71 4.33 7.05 4.25C7.91 4 8.83 4.06 9.65 4.42L4.42 9.65C4.06 8.83 4 7.91 4.25 7.05M20.47 14.82L14.82 20.47L7.75 13.4L13.4 7.75L20.47 14.82M13.76 5.27L5.27 13.76L3.86 12.34L12.34 3.86L13.76 5.27M14.82 11.63L11.63 14.82L10.57 13.76L13.76 10.57L14.82 11.63M16.94 13.76L13.76 16.94L12.69 15.88L15.88 12.69L16.94 13.76Z" /></svg>
